images/falcon-svg/falcon1.svg

<svg xmlns="http://www.w3.org/2000/svg" style="isolation:isolate" viewBox="33.4 279.947 10.076 107.794" width="10.076" height="107.794"><path fill="#F7F7F7" d="M34.176 299.891h8.469v73.344h-8.469z"/><path fill="#FFF" d="M34.447 300.107h4.067v72.896h-4.067z" opacity=".034"/><path fill="#FFF" d="M38.454 300.093h4.007v72.872h-4.007z" opacity=".034"/><path fill="#4D4D4D" d="M34.206 308.303h8.485v16.131h-8.485z"/><path vector-effect="non-scaling-stroke" stroke-width=".4" stroke="#000" d="M34.2 299.933h8.476M34.2 324.415h8.476M34.2 308.272h8.476M38.438 280.747v16.939"/><path d="M40.894 386.941H36.001l.126-.694.192-.753.226-.745.26-.734.292-.721.324-.706.1-.343-.07-.098-.068-.101-.064-.105-.061-.109-.058-.112-.055-.115-.052-.119-.048-.123-.046-.127-.043-.13-.039-.134-.037-.137-.034-.142-.031-.145-.028-.149-.025-.153-.022-.157-.019-.161-.017-.164-.014-.169-.011-.173.075-.088H40.108l.09.073-.011.173-.014.169-.016.165-.02.162-.022.157-.024.153-.028.149-.031.146-.033.142-.037.138-.039.134-.042.13-.046.127-.048.123-.052.12-.054.116-.058.112-.061.109-.064.105-.067.102-.07.098.064.29.327.705.295.719.262.734.229.744.195.752.16.759.001.001z" fill="#333" vector-effect="non-scaling-stroke" stroke-width=".4" stroke="#000"/><path d="M34.699 297.686h7.478v-7.679l-.748-3.685-2.227-5.058a.824.824 0 0 0-1.528 0l-2.228 5.058-.747 3.685v7.679zM42.177 297.686l.499 2.247v73.227l-3.384 2.977a1.492 1.492 0 0 1-1.708 0L34.2 373.16v-73.227l.499-2.247" fill="none" vector-effect="non-scaling-stroke" stroke-width=".4" stroke="#000"/><path vector-effect="non-scaling-stroke" stroke-width=".4" stroke="#000" d="M42.676 373.16H34.2M38.438 376.406v2.928M34.2 373.16l2.554 6.174M42.676 373.16l-2.554 6.174"/><path d="M38.653 289.261c0-4.52.021-8.218.047-8.216.17.006.399.452 1.405 2.727l1.129 2.552.364 1.75.364 1.75.002 3.828.002 3.828H38.653v-8.219zM34.905 293.729v-3.776l.361-1.779.36-1.778 1.127-2.563c.62-1.409 1.157-2.595 1.194-2.636.07-.076.212-.161.269-.161.023 0 .033 2.506.033 8.235v8.234h-3.344v-3.776zM34.459 299.69c.001-.03.089-.448.196-.929l.194-.875 3.585-.008 3.585-.008.016.07c.062.26.391 1.758.391 1.779 0 .014-1.793.026-3.984.026-3.775 0-3.984-.003-3.983-.055z" fill="#F2F2F2"/><path d="M37.954 376.247c-.273-.101-.251-.083-1.904-1.585l-1.565-1.422 1.96-.014c1.078-.01 2.836-.01 3.908 0l1.949.014-1.594 1.448c-1.091.991-1.662 1.475-1.811 1.535-.257.104-.698.115-.943.023v.001z" fill="#EFEFEF"/><g opacity=".034"><linearGradient id="a" x1="33.864%" y1="23.171%" x2="82.338%" y2="23.171%"><stop offset="0%"/><stop offset="100%" stop-opacity="0"/></linearGradient><path fill="url(#a)" d="M34.372 300.107h4.104v72.885h-4.104z"/></g><g opacity=".034"><linearGradient id="b" x1="33.864%" y1="23.171%" x2="82.338%" y2="23.171%"><stop offset="0%"/><stop offset="100%" stop-opacity="0"/></linearGradient><path fill="url(#b)" d="M38.415 300.093h4.044v72.861h-4.044z"/></g><g fill="#005288"><path d="M38.931 339.721h-1.998l-.074.055v1.777h.553v-.666l.053-.047h1.466c.37 0 .543-.1.543-.356v-.408c0-.256-.173-.355-.543-.355m0 .657c0 .12-.08.145-.253.145h-1.207l-.059-.057v-.381l.053-.048h1.213c.173 0 .253.025.253.146v.195zM37.774 343.763l.476.697-.027.068h-1.052l-.269.33h1.567l.108.066.244.336h.632l-1.387-1.856M37.478 353.023v-.494l.057-.049h1.059v-.314h-1.678v1.218h2.475v-.313h-1.853M36.916 351.551h2.502v.345h-2.502zM37.47 347.729h2.015c-.031-.256-.19-.327-.593-.327h-1.444c-.455 0-.6.089-.6.433v.966c0 .345.145.434.6.434h1.444c.409 0 .566-.077.576-.343H37.47l-.059-.055v-1.071M38.909 336.212h-1.466l-.043-.048v-.313l.043-.033h1.976l.027-.066c-.067-.174-.241-.254-.565-.254h-1.373c-.455 0-.6.088-.6.433v.203c0 .344.145.433.6.433h1.463l.046.04v.328l-.038.051h-1.673v-.001h-.438s-.05.025-.048.037c.037.241.201.309.594.309h1.495c.455 0 .605-.089.605-.434v-.252c0-.344-.15-.433-.605-.433M37.498 355.8h-.823l-.045.085.914.666c.173-.1.362-.201.566-.302M38.235 357.055l.803.586h.833l.035-.078-1.2-.878c-.159.117-.316.241-.471.37"/><path d="M37.375 357.639h-.744l-.063-.098c.506-.489 2.818-2.326 5.826-2.56 0 0-2.632.293-5.019 2.658"/></g></svg>

<?xml version="1.0" standalone="no"?><!-- Generator: Gravit.io --><svg xmlns="http://www.w3.org/2000/svg" xmlns:xlink="http://www.w3.org/1999/xlink" style="isolation:isolate" viewBox="33.4 279.947 10.076 107.794" width="10.076" height="107.794"><g id="f1-full"><rect x="34.176" y="299.891" width="8.469" height="73.344" transform="matrix(1,0,0,1,0,0)" fill="rgb(247,247,247)"/><g id="g4369-6-6-9-5"><g opacity="0.03365383"><rect x="34.447" y="300.107" width="4.067" height="72.896" transform="matrix(1,0,0,1,0,0)" fill="rgb(255,255,255)"/></g><g opacity="0.03365383"><rect x="38.454" y="300.093" width="4.007" height="72.872" transform="matrix(1,0,0,1,0,0)" fill="rgb(255,255,255)"/></g></g><rect x="34.206" y="308.303" width="8.485" height="16.131" transform="matrix(1,0,0,1,0,0)" fill="rgb(77,77,77)"/><line x1="34.2" y1="299.933" x2="42.676" y2="299.933" vector-effect="non-scaling-stroke" stroke-width="0.4" stroke="rgb(0,0,0)" stroke-linejoin="miter" stroke-linecap="butt" stroke-miterlimit="4"/><line x1="34.2" y1="324.415" x2="42.676" y2="324.415" vector-effect="non-scaling-stroke" stroke-width="0.4" stroke="rgb(0,0,0)" stroke-linejoin="miter" stroke-linecap="butt" stroke-miterlimit="4"/><line x1="34.2" y1="308.272" x2="42.676" y2="308.272" vector-effect="non-scaling-stroke" stroke-width="0.4" stroke="rgb(0,0,0)" stroke-linejoin="miter" stroke-linecap="butt" stroke-miterlimit="4"/><line x1="38.438" y1="280.747" x2="38.438" y2="297.686" vector-effect="non-scaling-stroke" stroke-width="0.4" stroke="rgb(0,0,0)" stroke-linejoin="miter" stroke-linecap="butt" stroke-miterlimit="4"/><path d=" M 40.894 386.941 L 40.671 386.941 L 40.449 386.941 L 40.226 386.941 L 40.004 386.941 L 39.782 386.941 L 39.559 386.941 L 39.337 386.941 L 39.115 386.941 L 38.892 386.941 L 38.67 386.941 L 38.447 386.941 L 38.225 386.941 L 38.003 386.941 L 37.78 386.941 L 37.558 386.941 L 37.336 386.941 L 37.113 386.941 L 36.891 386.941 L 36.668 386.941 L 36.446 386.941 L 36.224 386.941 L 36.001 386.941 L 36.127 386.247 L 36.319 385.494 L 36.545 384.749 L 36.805 384.015 L 37.097 383.294 L 37.421 382.588 L 37.521 382.245 L 37.451 382.147 L 37.383 382.046 L 37.319 381.941 L 37.258 381.832 L 37.2 381.72 L 37.145 381.605 L 37.093 381.486 L 37.045 381.363 L 36.999 381.236 L 36.956 381.106 L 36.917 380.972 L 36.88 380.835 L 36.846 380.693 L 36.815 380.548 L 36.787 380.399 L 36.762 380.246 L 36.74 380.089 L 36.721 379.928 L 36.704 379.764 L 36.69 379.595 L 36.679 379.422 L 36.754 379.334 L 36.914 379.334 L 37.073 379.334 L 37.233 379.334 L 37.393 379.334 L 37.552 379.334 L 37.712 379.334 L 37.872 379.334 L 38.032 379.334 L 38.191 379.334 L 38.351 379.334 L 38.511 379.334 L 38.67 379.334 L 38.83 379.334 L 38.99 379.334 L 39.15 379.334 L 39.309 379.334 L 39.469 379.334 L 39.629 379.334 L 39.789 379.334 L 39.948 379.334 L 40.108 379.334 L 40.198 379.407 L 40.187 379.58 L 40.173 379.749 L 40.157 379.914 L 40.137 380.076 L 40.115 380.233 L 40.091 380.386 L 40.063 380.535 L 40.032 380.681 L 39.999 380.823 L 39.962 380.961 L 39.923 381.095 L 39.881 381.225 L 39.835 381.352 L 39.787 381.475 L 39.735 381.595 L 39.681 381.711 L 39.623 381.823 L 39.562 381.932 L 39.498 382.037 L 39.431 382.139 L 39.361 382.237 L 39.425 382.527 L 39.752 383.232 L 40.047 383.951 L 40.309 384.685 L 40.538 385.429 L 40.733 386.181 L 40.893 386.94 L 40.894 386.941 Z " fill="rgb(51,51,51)" vector-effect="non-scaling-stroke" stroke-width="0.4" stroke="rgb(0,0,0)" stroke-linejoin="miter" stroke-linecap="butt" stroke-miterlimit="4"/><path d=" M 34.699 297.686 L 42.177 297.686 L 42.177 290.007 L 41.429 286.322 L 39.202 281.264 C 39.077 280.952 38.774 280.747 38.438 280.747 C 38.101 280.747 37.799 280.952 37.674 281.264 L 35.446 286.322 L 34.699 290.007 L 34.699 297.686 Z " fill="none" vector-effect="non-scaling-stroke" stroke-width="0.4" stroke="rgb(0,0,0)" stroke-linejoin="miter" stroke-linecap="butt" stroke-miterlimit="4"/><path d=" M 42.177 297.686 L 42.676 299.933 L 42.676 373.16 L 39.292 376.137 C 38.779 376.495 38.097 376.495 37.584 376.137 L 34.2 373.16 L 34.2 299.933 L 34.699 297.686" fill="none" vector-effect="non-scaling-stroke" stroke-width="0.4" stroke="rgb(0,0,0)" stroke-linejoin="miter" stroke-linecap="butt" stroke-miterlimit="4"/><line x1="42.676" y1="373.16" x2="34.2" y2="373.16" vector-effect="non-scaling-stroke" stroke-width="0.4" stroke="rgb(0,0,0)" stroke-linejoin="miter" stroke-linecap="butt" stroke-miterlimit="4"/><line x1="38.438" y1="376.406" x2="38.438" y2="379.334" vector-effect="non-scaling-stroke" stroke-width="0.4" stroke="rgb(0,0,0)" stroke-linejoin="miter" stroke-linecap="butt" stroke-miterlimit="4"/><line x1="34.2" y1="373.16" x2="36.754" y2="379.334" vector-effect="non-scaling-stroke" stroke-width="0.4" stroke="rgb(0,0,0)" stroke-linejoin="miter" stroke-linecap="butt" stroke-miterlimit="4"/><line x1="42.676" y1="373.16" x2="40.122" y2="379.334" vector-effect="non-scaling-stroke" stroke-width="0.4" stroke="rgb(0,0,0)" stroke-linejoin="miter" stroke-linecap="butt" stroke-miterlimit="4"/><path d=" M 38.653 289.261 C 38.653 284.741 38.674 281.043 38.7 281.045 C 38.87 281.051 39.099 281.497 40.105 283.772 L 41.234 286.324 L 41.598 288.074 L 41.962 289.824 L 41.964 293.652 L 41.966 297.48 L 40.309 297.48 L 38.653 297.48 L 38.653 289.261 L 38.653 289.261 Z " fill="rgb(242,242,242)"/><path d=" M 34.905 293.729 L 34.905 289.953 L 35.266 288.174 L 35.626 286.396 L 36.753 283.833 C 37.373 282.424 37.91 281.238 37.947 281.197 C 38.017 281.121 38.159 281.036 38.216 281.036 C 38.239 281.036 38.249 283.542 38.249 289.271 L 38.249 297.505 L 36.577 297.505 L 34.905 297.505 L 34.905 293.729 L 34.905 293.729 Z " fill="rgb(242,242,242)"/><path d=" M 34.459 299.69 C 34.46 299.66 34.548 299.242 34.655 298.761 L 34.849 297.886 L 38.434 297.878 L 42.019 297.87 L 42.035 297.94 C 42.097 298.2 42.426 299.698 42.426 299.719 C 42.426 299.733 40.633 299.745 38.442 299.745 C 34.667 299.745 34.458 299.742 34.459 299.69 L 34.459 299.69 Z " fill="rgb(242,242,242)"/><path d=" M 37.954 376.247 C 37.681 376.146 37.703 376.164 36.05 374.662 L 34.485 373.24 L 36.445 373.226 C 37.523 373.216 39.281 373.216 40.353 373.226 L 42.302 373.24 L 40.708 374.688 C 39.617 375.679 39.046 376.163 38.897 376.223 C 38.64 376.327 38.199 376.338 37.954 376.246 L 37.954 376.247 Z " fill="rgb(239,239,239)"/><g id="g4369-6-6-9"><g opacity="0.03365383"><linearGradient id="_lgradient_17" x1="33.864419991457595%" y1="23.17125312848214%" x2="82.33803203858159%" y2="23.17125312848214%"><stop offset="0%" stop-opacity="1" style="stop-color:rgb(0,0,0)"/><stop offset="100%" stop-opacity="0" style="stop-color:rgb(0,0,0)"/></linearGradient><rect x="34.372" y="300.107" width="4.104" height="72.885" transform="matrix(1,0,0,1,0,0)" fill="url(#_lgradient_17)"/></g><g opacity="0.03365383"><linearGradient id="_lgradient_18" x1="33.86436313822969%" y1="23.171251618138644%" x2="82.33797733509434%" y2="23.171251618138644%"><stop offset="0%" stop-opacity="1" style="stop-color:rgb(0,0,0)"/><stop offset="100%" stop-opacity="0" style="stop-color:rgb(0,0,0)"/></linearGradient><rect x="38.415" y="300.093" width="4.044" height="72.861" transform="matrix(1,0,0,1,0,0)" fill="url(#_lgradient_18)"/></g></g><g id="g13172"><path d=" M 38.931 339.721 L 36.933 339.721 L 36.859 339.776 L 36.859 341.553 L 37.412 341.553 L 37.412 340.887 L 37.465 340.84 L 38.931 340.84 C 39.301 340.84 39.474 340.74 39.474 340.484 L 39.474 340.076 C 39.474 339.82 39.301 339.721 38.931 339.721 M 38.931 340.378 C 38.931 340.498 38.851 340.523 38.678 340.523 L 37.471 340.523 L 37.412 340.466 L 37.412 340.085 L 37.465 340.037 L 38.678 340.037 C 38.851 340.037 38.931 340.062 38.931 340.183 L 38.931 340.378 L 38.931 340.378 Z " fill="rgb(0,82,136)"/><path d=" M 37.774 343.763 L 38.25 344.46 L 38.223 344.528 L 37.171 344.528 L 36.902 344.858 L 38.469 344.858 L 38.577 344.924 L 38.821 345.26 L 39.453 345.26 L 38.066 343.404" fill="rgb(0,82,136)"/><g id="g13178"><path d=" M 37.478 353.023 L 37.478 352.529 L 37.535 352.48 L 38.594 352.48 L 38.594 352.166 L 36.916 352.166 L 36.916 353.384 L 39.391 353.384 L 39.391 353.071 L 37.538 353.071" fill="rgb(0,82,136)"/><rect x="36.916" y="351.551" width="2.502" height="0.345" transform="matrix(1,0,0,1,0,0)" fill="rgb(0,82,136)"/></g><path d=" M 37.47 347.729 L 39.485 347.729 C 39.454 347.473 39.295 347.402 38.892 347.402 L 37.448 347.402 C 36.993 347.402 36.848 347.491 36.848 347.835 L 36.848 348.801 C 36.848 349.146 36.993 349.235 37.448 349.235 L 38.892 349.235 C 39.301 349.235 39.458 349.158 39.468 348.892 L 37.47 348.892 L 37.411 348.837 L 37.411 347.766" fill="rgb(0,82,136)"/><path d=" M 38.909 336.212 L 37.443 336.212 L 37.4 336.164 L 37.4 335.851 L 37.443 335.818 L 39.419 335.818 L 39.446 335.752 C 39.379 335.578 39.205 335.498 38.881 335.498 L 37.508 335.498 C 37.053 335.498 36.908 335.586 36.908 335.931 L 36.908 336.134 C 36.908 336.478 37.053 336.567 37.508 336.567 L 38.971 336.567 L 39.017 336.607 L 39.017 336.935 L 38.979 336.986 L 37.306 336.986 L 37.306 336.985 L 36.868 336.985 C 36.868 336.985 36.818 337.01 36.82 337.022 C 36.857 337.263 37.021 337.331 37.414 337.331 L 38.909 337.331 C 39.364 337.331 39.514 337.242 39.514 336.897 L 39.514 336.645 C 39.514 336.301 39.364 336.212 38.909 336.212" fill="rgb(0,82,136)"/><path d=" M 37.498 355.8 L 36.675 355.8 L 36.63 355.885 L 37.544 356.551 C 37.717 356.451 37.906 356.35 38.11 356.249" fill="rgb(0,82,136)"/><path d=" M 38.235 357.055 L 39.038 357.641 L 39.871 357.641 L 39.906 357.563 L 38.706 356.685 C 38.547 356.802 38.39 356.926 38.235 357.055" fill="rgb(0,82,136)"/><path d=" M 37.375 357.639 L 36.631 357.639 L 36.568 357.541 C 37.074 357.052 39.386 355.215 42.394 354.981 C 42.394 354.981 39.762 355.274 37.375 357.639" fill="rgb(0,82,136)"/></g></g></svg>
